X:1
T:Schwanengesang
T:Die Stadt
T:11. Die Stadt
T:Franz Schubert
T:Schwanengesang (D.957)
T:Heinrich Heine
T:OpenScore (CC0)
T:OpenScore (CC0)
T:OpenScore (CC0)
T:OpenScore (CC0)
C:Franz Schubert
Z:Heinrich Heine
Z:OpenScore (CC0)
%%score 1 { 2 | 3 }
L:1/8
Q:1/4=60
M:3/4
K:Eb
V:1 treble nm="Voice"
V:2 treble nm="Piano"
V:3 bass 
V:1
"^Mässig geschwind." z6 | z6 | z6 | z6 | z6 | z2 z2 !fermata!z3/2"^leise"[Q:1/4=45]!p! G/ | %6
w: |||||Am|
 G7/2 G/ G3/2 G/ |{A} G2 G2 z3/2 F/ | A2 A A G3/2 B/ | A4 z3/2[Q:1/4=40] c/ | c7/2 c/ d3/2 c/ | %11
w: fer- nen Ho- ri-|zon- te er-|scheint, wie ein Ne- bel-|bild, die|Stadt mit ih- ren|
 c2 =B2 z3/2 c/ | e3/2 e/ e2 d3/2 d/ | c4[Q:1/4=60] z2 | z6 | z6 | z2 z2 z[Q:1/4=40] c | %17
w: Thür- men, in|A- bend- dämm'- rung ge-|hüllt.|||Ein|
 c3/2 c/ e3 d | d2 c2 z B | =A3/2 A/ c3 B | =A4 z ^F | ^F F/ F/ F3 F | =A2 ^F2 z D | E2 E E E E | %24
w: feuch- ter Wind- zug|kräu- selt die|grau- e Was- ser-|bahn; mit|trau- rig- em Tak- te|ru- dert der|Schif- fer in mei- nem|
 C4 z2 |[Q:1/4=60] z6 | z2 z2 !fermata!z3/2"^stark"!fff![Q:1/4=50] G/ |!ff! G3/2 G/ G2 G3/2 G/ | %28
w: Kahn.||Die|Son- ne hebt sich noch|
 A2 G z!<(! (3F =E F!<)! |!fff! c4 C3/2 C/ | F4 z3/2!ff!!<(! c/ | c3/2 c/ _d7/2 c/ | %32
w: ein- mal leuch- tend vom|Bo- den em-|por, und|zeigt mir je- ne|
 c2 =B z (3c B c!<)! |!ffff! g4 =B3/2 B/ | c4[Q:1/4=60] z2 | z6 | z6 | z6 | z6 | !fermata!z6 |] %40
w: Stel- le, wo ich das|Lieb- ste ver-|lor.||||||
V:2
 z6 | z6 | %2
 (9:8:9(=A/4c/4e/4^f/4=a/4f/4e/4c/4A/4) ((!>![CE^FA]=A,/)) z/[K:bass] ((!>![C,E,^F,=A,]=A,,/)) z/ | %3
[K:treble] (9:8:9(=A/4c/4e/4^f/4=a/4f/4e/4c/4A/4) ((!>![CE^FA]=A,/)) z/[K:bass] ((!>![C,E,^F,=A,]=A,,/)) z/ | %4
[K:treble] (9:8:9(=A/4c/4e/4^f/4=a/4f/4e/4c/4A/4) ((!>![CE^FA]=A,/)) z/[K:bass] ((!>![C,E,^F,=A,]=A,,/)) z/ | %5
 z2 z2 !fermata!z3/2!pp! [C,E,G,]/ | [C,E,G,]7/2 [C,E,G,]<[C,E,G,][C,E,G,]/ | %7
 [=B,,D,G,]7/2 [B,,D,G,]<[C,F,][C,F,]/ | [F,A,]7/2 [C,F,A,]<[C,=E,G,][C,G,B,]/ | %9
 [C,F,A,]7/2 [C,F,A,]<[C,F,][C,F,A,]/ | [C,F,C]7/2 [C,F,C]<[D,A,D][D,F,C]/ | %11
 ([E,G,C]2 [D,G,=B,]>)[G,B,][G,C]>[G,C] | [CE]4 [G,=B,D]2 | [E,G,C]4 z2 | z6 | %15
[K:treble] (9:8:9(=A/4c/4e/4^f/4=a/4f/4e/4c/4A/4) ((!>![CE^FA]=A,/)) z/[K:bass] ((!>![C,E,^F,=A,]=A,,/)) z/ | %16
[K:treble] (9:8:9(=A/4c/4e/4^f/4=a/4f/4e/4c/4A/4) ((!>![CE^FA]=A,/)) z/[K:bass] ((!>![C,E,^F,=A,]=A,,/)) z/ | %17
[K:treble] (9:8:9(=A/4c/4e/4^f/4=a/4f/4e/4c/4A/4) ((!>![CE^FA]=A,/)) z/[K:bass] ((!>![C,E,^F,=A,]=A,,/)) z/ | %18
[K:treble] (9:8:9(=A/4c/4e/4^f/4=a/4f/4e/4c/4A/4) ((!>![CE^FA]=A,/)) z/[K:bass] ((!>![C,E,^F,=A,]=A,,/)) z/ | %19
[K:treble] (9:8:9(=A/4c/4e/4^f/4=a/4f/4e/4c/4A/4) ((!>![CE^FA]=A,/)) z/[K:bass] ((!>![C,E,^F,=A,]=A,,/)) z/ | %20
[K:treble] (9:8:9(=A/4c/4e/4^f/4=a/4f/4e/4c/4A/4) ((!>![CE^FA]=A,/)) z/[K:bass] ((!>![C,E,^F,=A,]=A,,/)) z/ | %21
[K:treble] (9:8:9(=A/4c/4e/4^f/4=a/4f/4e/4c/4A/4) ((!>![CE^FA]=A,/)) z/[K:bass] ((!>![C,E,^F,=A,]=A,,/)) z/ | %22
[K:treble] (9:8:9(=A/4c/4e/4^f/4=a/4f/4e/4c/4A/4) ((!>![CE^FA]=A,/)) z/[K:bass] ((!>![C,E,^F,=A,]=A,,/)) z/ | %23
[K:treble] (9:8:9(=A/4c/4e/4^f/4=a/4f/4e/4c/4A/4) ((!>![CE^FA]=A,/)) z/[K:bass] ((!>![C,E,^F,=A,]=A,,/)) z/ | %24
[K:treble] (9:8:9(=A/4c/4e/4^f/4=a/4f/4e/4c/4A/4) ((!>![CE^FA]=A,/)) z/[K:bass] ((!>![C,E,^F,=A,]=A,,/)) z/ | %25
[K:treble] (9:8:9(=A/4c/4e/4^f/4=a/4f/4e/4c/4A/4) ((!>![CE^FA]=A,/)) z/[K:bass] ((!>![C,E,^F,=A,]=A,,/)) z/ | %26
[K:treble] z2 z2 !fermata!z3/2 [CEG]/ |!f! [CEG]7/2 [CEG]<[CEG][CEG]/ | %28
 [=B,DG]7/2!<(! [B,DG]<[CF][CF]/!<)! |!>(! [CFA]7/2 [CFA]<[CGB][C=EG]/!>)! | %30
 [CFA]7/2 [CFA]<[CF][CFA]/ |!<(! [CFc]>[CFc]!<)!!>(! [_DA_d]7/2 [CFc]/!>)! | %32
 ([EGc]2 [DG=B]>)[DGB]!<(![CGc]>[Gc]!<)! |!>(! [Gce]4 [G=Bd]2!>)! | [EGc]4 z2 | z6 | %36
 (9:8:9(=A/4c/4e/4^f/4=a/4f/4e/4c/4A/4) ((!>![CE^FA]=A,/)) z/[K:bass] ((!>![C,E,^F,=A,]=A,,/)) z/ | %37
[K:treble] (9:8:9(=A/4c/4e/4^f/4=a/4f/4e/4c/4A/4) ((!>![CE^FA]=A,/)) z/[K:bass] ((!>![C,E,^F,=A,]=A,,/)) z/ | %38
[K:treble] (9:8:9(=A/4c/4e/4^f/4=a/4f/4e/4c/4A/4) ((!>![CE^FA]=A,/)) z/[K:bass] ((!>![C,E,^F,=A,]=A,,/)) z/ | %39
[K:treble] !fermata!z6 |] %40
V:3
!pp! C,,/4"^con Pedale"C,/4C,,/4C,/4C,,/4C,/4C,,/4C,/4 C,, z C,, z | %1
 C,,/4C,/4C,,/4C,/4C,,/4C,/4C,,/4C,/4 C,, z C,, z | %2
!pp! C,,/4C,/4C,,/4C,/4C,,/4C,/4C,,/4C,/4 C,, z C,, z | %3
 C,,/4C,/4C,,/4C,/4C,,/4C,/4C,,/4C,/4 C,, z"_dim." C,, z | %4
 C,,/4C,/4C,,/4C,/4C,,/4C,/4C,,/4C,/4 C,, z C,, z | %5
 C,,/4C,/4C,,/4C,/4C,,/4C,/4C,,/4C,/4!ppp! C,, z C,, !fermata!z/ C,,/ | C,,7/2 C,,<E,,C,,/ | %7
 G,,7/2 G,,<A,,F,,/ | C,7/2 C,,<C,,C,,/ | F,,7/2 F,,<A,,F,,/ | A,,7/2 A,,<F,,A,,/ | %11
 G,,7/2 [D,,D,]<[E,,E,][C,,C,]/ | [G,,G,]4 [G,,,G,,]2 | %13
 C,,/4C,/4C,,/4C,/4C,,/4C,/4C,,/4C,/4 C,, z C,, z | %14
 C,,/4C,/4C,,/4C,/4C,,/4C,/4C,,/4C,/4 C,, z C,, z | %15
 C,,/4C,/4C,,/4C,/4C,,/4C,/4C,,/4C,/4 C,, z C,, z | %16
 C,,/4C,/4C,,/4C,/4C,,/4C,/4C,,/4C,/4 C,, z C,, z | %17
 C,,/4C,/4C,,/4C,/4C,,/4C,/4C,,/4C,/4 C,, z C,, z | %18
 C,,/4C,/4C,,/4C,/4C,,/4C,/4C,,/4C,/4 C,, z C,, z | %19
 C,,/4C,/4C,,/4C,/4C,,/4C,/4C,,/4C,/4 C,, z C,, z | %20
 C,,/4C,/4C,,/4C,/4C,,/4C,/4C,,/4C,/4 C,, z C,, z | %21
"^dim." C,,/4C,/4C,,/4C,/4C,,/4C,/4C,,/4C,/4 C,, z C,, z | %22
 C,,/4C,/4C,,/4C,/4C,,/4C,/4C,,/4C,/4 C,, z C,, z | %23
 C,,/4C,/4C,,/4C,/4C,,/4C,/4C,,/4C,/4 C,, z C,, z | %24
 C,,/4C,/4C,,/4C,/4C,,/4C,/4C,,/4C,/4 C,, z C,, z | %25
 C,,/4C,/4C,,/4C,/4C,,/4C,/4C,,/4C,/4 C,, z C,, z | %26
 C,,/4C,/4C,,/4C,/4C,,/4C,/4C,,/4C,/4 C,, z C,, !fermata!z/!f! [C,,C,]/ | %27
 [C,,C,]7/2 [C,,C,]<[E,,E,][C,,C,]/ | [G,,G,]7/2!f! [G,,G,]<[A,,A,][F,,F,]/ | %29
!fff! [C,C]7/2 [C,,C,]<[C,,C,][C,,C,]/ |!f! [F,,F,]7/2 [F,,F,]<[A,,A,][F,,F,]/ | %31
!f! [A,,A,]>[A,,A,]!ff! [F,,F,]7/2 [A,,A,]/ |!f! [G,,G,]7/2 [D,,D,]<!f![E,,E,][C,,C,]/ | %33
!ff! [G,,G,]4 [G,,,G,,]2 |!f!"^dim." C,,/4C,/4C,,/4C,/4C,,/4C,/4C,,/4C,/4 C,, z C,, z | %35
!p! C,,/4C,/4C,,/4C,/4C,,/4C,/4C,,/4C,/4 C,, z C,, z | %36
!pp! C,,/4C,/4C,,/4C,/4C,,/4C,/4C,,/4C,/4 C,, z C,, z | %37
 C,,/4C,/4C,,/4C,/4C,,/4C,/4C,,/4C,/4 C,, z!pp!"^dim." C,, z | %38
 C,,/4C,/4C,,/4C,/4C,,/4C,/4C,,/4C,/4 C,, z C,, z |!ppp! !fermata!C,,6 |] %40

